COLOR/action 16/16/object-columns.svg

<svg height="16" viewBox="0 0 16 16" width="16" xmlns="http://www.w3.org/2000/svg"><path d="m3 2v12h2v-12zm4 0v12h2v-12zm4 0v12h2v-12z" fill="#1d99f3"/><path d="m3 2v.5h2v-.5zm4 0v.5h2v-.5zm4 0v.5h2v-.5z" fill="#fff" opacity=".3"/><path d="m3 13.5v.5h2v-.5zm4 0v.5h2v-.5zm4 0v.5h2v-.5z" opacity=".2"/></svg>

<?xml version="1.0" encoding="UTF-8" standalone="no"?>
<svg
   xmlns:dc="http://purl.org/dc/elements/1.1/"
   xmlns:cc="http://creativecommons.org/ns#"
   xmlns:rdf="http://www.w3.org/1999/02/22-rdf-syntax-ns#"
   xmlns:svg="http://www.w3.org/2000/svg"
   xmlns="http://www.w3.org/2000/svg"
   xmlns:sodipodi="http://sodipodi.sourceforge.net/DTD/sodipodi-0.dtd"
   xmlns:inkscape="http://www.inkscape.org/namespaces/inkscape"
   height="16"
   viewBox="0 0 16 16"
   width="16"
   version="1.1"
   id="svg4"
   sodipodi:docname="object-columns.svg"
   inkscape:version="0.92.4 (5da689c313, 2019-01-14)">
  <metadata
     id="metadata10">
    <rdf:RDF>
      <cc:Work
         rdf:about="">
        <dc:format>image/svg+xml</dc:format>
        <dc:type
           rdf:resource="http://purl.org/dc/dcmitype/StillImage" />
      </cc:Work>
    </rdf:RDF>
  </metadata>
  <defs
     id="defs8" />
  <sodipodi:namedview
     pagecolor="#ffffff"
     bordercolor="#666666"
     borderopacity="1"
     objecttolerance="10"
     gridtolerance="10"
     guidetolerance="10"
     inkscape:pageopacity="0"
     inkscape:pageshadow="2"
     inkscape:window-width="1920"
     inkscape:window-height="1016"
     id="namedview6"
     showgrid="false"
     inkscape:zoom="14.75"
     inkscape:cx="8"
     inkscape:cy="8"
     inkscape:window-x="0"
     inkscape:window-y="27"
     inkscape:window-maximized="1"
     inkscape:current-layer="svg4" />
  <path
     d="m3 2v12h2v-12zm4 0v12h2v-12zm4 0v12h2v-12z"
     fill="#5884f4"
     id="path2"
     style="fill:#1d99f3;fill-opacity:1" />
  <path
     style="fill:#ffffff;fill-opacity:1;opacity:0.3"
     d="M 3 2 L 3 2.5 L 5 2.5 L 5 2 L 3 2 z M 7 2 L 7 2.5 L 9 2.5 L 9 2 L 7 2 z M 11 2 L 11 2.5 L 13 2.5 L 13 2 L 11 2 z "
     id="path851" />
  <path
     id="path856"
     d="M 3,13.5 V 14 h 2 v -0.5 z m 4,0 V 14 h 2 v -0.5 z m 4,0 V 14 h 2 v -0.5 z"
     style="opacity:0.2;fill:#000000;fill-opacity:1"
     inkscape:connector-curvature="0" />
</svg>
